X:1
T:Title
%%score { ( 1 3 ) | ( 2 4 ) }
L:1/8
Q:1/4=100
M:4/4
K:Ab
V:1 treble nm="Grand Piano"
V:3 treble 
V:2 bass 
V:4 bass 
V:1
 [Ec]2 [Ae]2 [Ec]>[DB] [EA]>[EG] | [DF]4 [CE]4 | [CA]2 [CE]2 B>E c>A | G4- [Ge]2 z2 | %4
w: J.~E.~Hall * * * * *||||
 [Ec]2 [Ae]2 [Ec]>[DB] [EA]>[EG] | [DF]4 [FA]4 | E2 A2 B>B A>G | [CEA]6 z2 | [ce]6 z2 | [GB]6 z2 | %10
w: ||||||
 [Bd]6 z2 | [FA]6 z2 | [Ec]2 [Ae]2 [Ec]>[DB] [CA]>[Ec] | [Fd]4 [FA]2 [FB]2 | E>E E>E F2 G2 | %15
w: |||||
 [CA]6 z2 |] %16
w: |
V:2
 [A,,A,]2 [A,,C]2 [A,,A,]>[A,,A,] [C,A,]>[C,A,] | [D,A,]4 [A,,A,]4 | %2
 [A,,A,]2 [A,,A,]2 [E,G,D]>[E,G,D] [A,E]>[A,CE] | z4 B,2 z2 | %4
 [A,,A,]2 [A,,C]2 [A,,A,]>[A,,A,] [C,A,]>[C,A,] | [D,A,]4 [D,D]4 | %6
 [E,A,C]2 [E,CE]2 [E,DE]>[E,DE] [E,CE]>[E,B,E] | A,,6 z2 | z4 z2 E,2 | C,2 E,>E, E,2 E,2 | %10
 B,,2 B,,>B,, B,,2 z z/ G/ | E,2 F,>F, F,2 z2 | [A,,A,]2 [A,,C]2 [A,,A,]>[A,,A,] [A,,A,]>[A,,A,] | %13
 [D,A,]4 [D,D]2 [D,D]2 | [E,C]>[E,A,C] [E,A,C]>[E,A,C] [E,A,D]2 [E,B,D]2 | [A,,A,]6 z2 |] %16
V:3
 x8 | x8 | x8 | [EB]4 z4 | x8 | x8 | x8 | x8 | z2 A,>A, A,2 [Bd]>c | z2 E>E E2 z2 | %10
 z2 B,>B, B,2 [Ac]>B | z2 C>C C2 F,2 | x8 | x8 | x8 | x8 |] %16
V:4
 x8 | x8 | x8 | E,6 z2 | x8 | x8 | x8 | x8 | A,,2 B,,>A,, A,,2 z z/ A/ | x8 | z4 z2 C,2 | x8 | x8 | %13
 x8 | x8 | x8 |] %16

